icons/align-center-horizontal.svg

<svg width="24" height="24" viewBox="0 0 24 24" fill="none" xmlns="http://www.w3.org/2000/svg">
<path d="M10 12V5C10 3.34315 8.65685 2 7 2C5.34315 2 4 3.34315 4 5V12M10 12V19C10 20.6569 8.65685 22 7 22C5.34315 22 4 20.6569 4 19V12M10 12H14M4 12H2M14 12V8C14 6.34315 15.3431 5 17 5C18.6569 5 20 6.34315 20 8V12M14 12V16C14 17.6569 15.3431 19 17 19C18.6569 19 20 17.6569 20 16V12M20 12H22" stroke="black" stroke-width="2" stroke-linecap="round" stroke-linejoin="round"/>
</svg>

<svg xmlns="http://www.w3.org/2000/svg" width="24" height="24" viewBox="0 0 24 24" fill="none" stroke="currentColor" stroke-width="2" stroke-linecap="round" stroke-linejoin="round">
<path d="M10 12V5a3 3 0 0 0-6 0v7m6 0v7a3 3 0 1 1-6 0v-7m6 0h4M4 12H2m12 0V8a3 3 0 1 1 6 0v4m-6 0v4a3 3 0 1 0 6 0v-4m0 0h2"/>
</svg>
